dist/icons/svgs/calendar-check-outline.svg

<svg xmlns="http://www.w3.org/2000/svg" width="24" height="24" fill="currentcolor" class="icon-calendar-check-outline" viewBox="0 0 24 24">
  <path d="M8.25 2C8.75781 2 9.1875 2.42969 9.1875 2.9375V4.5H14.8125V2.9375C14.8125 2.42969 15.2031 2 15.75 2C16.2578 2 16.6875 2.42969 16.6875 2.9375V4.5H18.25C19.6172 4.5 20.75 5.63281 20.75 7V7.625V9.5V19.5C20.75 20.9062 19.6172 22 18.25 22H5.75C4.34375 22 3.25 20.9062 3.25 19.5V9.5V7.625V7C3.25 5.63281 4.34375 4.5 5.75 4.5H7.3125V2.9375C7.3125 2.42969 7.70312 2 8.25 2ZM18.875 9.5H5.125V19.5C5.125 19.8516 5.39844 20.125 5.75 20.125H18.25C18.5625 20.125 18.875 19.8516 18.875 19.5V9.5ZM16.1016 13.6016L11.7266 17.9766C11.3359 18.3672 10.75 18.3672 10.3984 17.9766L7.89844 15.4766C7.50781 15.125 7.50781 14.5391 7.89844 14.1875C8.25 13.7969 8.83594 13.7969 9.22656 14.1875L11.0625 16.0234L14.7734 12.3125C15.125 11.9219 15.7109 11.9219 16.0625 12.3125C16.4531 12.6641 16.4531 13.25 16.0625 13.6016H16.1016Z"/>
</svg>

<svg xmlns="http://www.w3.org/2000/svg" width="24" height="24" fill="currentColor" class="icon-calendar-check-outline" viewBox="0 0 24 24">
  <path d="M8.25 2a.95.95 0 0 1 .938.938V4.5h5.624V2.938c0-.508.391-.938.938-.938a.95.95 0 0 1 .938.938V4.5h1.562c1.367 0 2.5 1.133 2.5 2.5v12.5c0 1.406-1.133 2.5-2.5 2.5H5.75a2.47 2.47 0 0 1-2.5-2.5V7c0-1.367 1.094-2.5 2.5-2.5h1.563V2.938c0-.508.39-.938.937-.938m10.625 7.5H5.125v10c0 .352.273.625.625.625h12.5a.64.64 0 0 0 .625-.625zm-2.773 4.102-4.375 4.375c-.391.39-.977.39-1.329 0l-2.5-2.5a.856.856 0 0 1 0-1.29c.352-.39.938-.39 1.329 0l1.835 1.836 3.711-3.71a.856.856 0 0 1 1.29 0c.39.351.39.937 0 1.289z"/>
</svg>
